Numix-Circle/48x48/apps/chrome-jbdlaalbpgnopkpnmoppmccbgkjhfmgh-Default.svg

<?xml version="1.0" encoding="UTF-8" standalone="no"?>
<svg
   xmlns:dc="http://purl.org/dc/elements/1.1/"
   xmlns:cc="http://creativecommons.org/ns#"
   xmlns:rdf="http://www.w3.org/1999/02/22-rdf-syntax-ns#"
   xmlns:svg="http://www.w3.org/2000/svg"
   xmlns="http://www.w3.org/2000/svg"
   xmlns:xlink="http://www.w3.org/1999/xlink"
   xmlns:sodipodi="http://sodipodi.sourceforge.net/DTD/sodipodi-0.dtd"
   xmlns:inkscape="http://www.inkscape.org/namespaces/inkscape"
   viewBox="0 0 48 48"
   id="svg2"
   version="1.1"
   inkscape:version="0.48.5 r10040"
   width="100%"
   height="100%"
   sodipodi:docname="chrome-jbdlaalbpgnopkpnmoppmccbgkjhfmgh-Default.svg">
  <metadata
     id="metadata45">
    <rdf:RDF>
      <cc:Work
         rdf:about="">
        <dc:format>image/svg+xml</dc:format>
        <dc:type
           rdf:resource="http://purl.org/dc/dcmitype/StillImage" />
      </cc:Work>
    </rdf:RDF>
  </metadata>
  <sodipodi:namedview
     pagecolor="#ffffff"
     bordercolor="#666666"
     borderopacity="1"
     objecttolerance="10"
     gridtolerance="10"
     guidetolerance="10"
     inkscape:pageopacity="0"
     inkscape:pageshadow="2"
     inkscape:window-width="1280"
     inkscape:window-height="998"
     id="namedview43"
     showgrid="true"
     showguides="true"
     inkscape:guide-bbox="true"
     inkscape:zoom="11.313709"
     inkscape:cx="23.782697"
     inkscape:cy="19.021866"
     inkscape:window-x="0"
     inkscape:window-y="0"
     inkscape:window-maximized="1"
     inkscape:current-layer="svg2">
    <inkscape:grid
       type="xygrid"
       id="grid3817" />
  </sodipodi:namedview>
  <defs
     id="defs4">
    <linearGradient
       id="linearGradient3801">
      <stop
         style="stop-color:#205081;stop-opacity:1;"
         offset="0"
         id="stop3803" />
      <stop
         style="stop-color:#245990;stop-opacity:1;"
         offset="1"
         id="stop3805" />
    </linearGradient>
    <linearGradient
       id="linearGradient3764"
       x1="1"
       x2="47"
       gradientUnits="userSpaceOnUse"
       gradientTransform="matrix(0,-1,1,0,-1.5e-6,47.999998)">
      <stop
         stop-color="#767676"
         stop-opacity="1"
         id="stop7" />
      <stop
         offset="1"
         stop-color="#808080"
         stop-opacity="1"
         id="stop9" />
    </linearGradient>
    <clipPath
       id="clipPath11">
      <g
         transform="translate(0,-1004.3622)"
         id="g13">
        <path
           d="m -24 13 c 0 1.105 -0.672 2 -1.5 2 -0.828 0 -1.5 -0.895 -1.5 -2 0 -1.105 0.672 -2 1.5 -2 0.828 0 1.5 0.895 1.5 2 z"
           transform="matrix(15.333333,0,0,11.5,414.99999,878.8622)"
           fill="#1890d0"
           id="path15" />
      </g>
    </clipPath>
    <clipPath
       id="clipPath17">
      <g
         transform="translate(0,-1004.3622)"
         id="g19">
        <path
           d="m -24 13 c 0 1.105 -0.672 2 -1.5 2 -0.828 0 -1.5 -0.895 -1.5 -2 0 -1.105 0.672 -2 1.5 -2 0.828 0 1.5 0.895 1.5 2 z"
           transform="matrix(15.333333,0,0,11.5,414.99999,878.8622)"
           fill="#1890d0"
           id="path21" />
      </g>
    </clipPath>
    <linearGradient
       inkscape:collect="always"
       xlink:href="#linearGradient3801"
       id="linearGradient3807"
       x1="1"
       y1="24"
       x2="47"
       y2="24"
       gradientUnits="userSpaceOnUse" />
    <linearGradient
       inkscape:collect="always"
       xlink:href="#linearGradient3801"
       id="linearGradient3809"
       gradientUnits="userSpaceOnUse"
       x1="1"
       y1="24"
       x2="47"
       y2="24" />
    <clipPath
       clipPathUnits="userSpaceOnUse"
       id="clipPath3813">
      <rect
         style="opacity:0.48717951;fill:#a5285c;fill-opacity:1;fill-rule:nonzero;stroke:none"
         id="rect3815"
         width="77.084747"
         height="88.881355"
         x="-57.152542"
         y="-32.542374" />
    </clipPath>
  </defs>
  <g
     id="g23">
    <path
       d="m 36.31 5 c 5.859 4.062 9.688 10.831 9.688 18.5 c 0 12.426 -10.07 22.5 -22.5 22.5 c -7.669 0 -14.438 -3.828 -18.5 -9.688 c 1.037 1.822 2.306 3.499 3.781 4.969 c 4.085 3.712 9.514 5.969 15.469 5.969 c 12.703 0 23 -10.298 23 -23 c 0 -5.954 -2.256 -11.384 -5.969 -15.469 c -1.469 -1.475 -3.147 -2.744 -4.969 -3.781 z m 4.969 3.781 c 3.854 4.113 6.219 9.637 6.219 15.719 c 0 12.703 -10.297 23 -23 23 c -6.081 0 -11.606 -2.364 -15.719 -6.219 c 4.16 4.144 9.883 6.719 16.219 6.719 c 12.703 0 23 -10.298 23 -23 c 0 -6.335 -2.575 -12.06 -6.719 -16.219 z"
       opacity="0.05"
       id="path25" />
    <path
       d="m 41.28 8.781 c 3.712 4.085 5.969 9.514 5.969 15.469 c 0 12.703 -10.297 23 -23 23 c -5.954 0 -11.384 -2.256 -15.469 -5.969 c 4.113 3.854 9.637 6.219 15.719 6.219 c 12.703 0 23 -10.298 23 -23 c 0 -6.081 -2.364 -11.606 -6.219 -15.719 z"
       opacity="0.1"
       id="path27" />
    <path
       d="m 31.25 2.375 c 8.615 3.154 14.75 11.417 14.75 21.13 c 0 12.426 -10.07 22.5 -22.5 22.5 c -9.708 0 -17.971 -6.135 -21.12 -14.75 a 23 23 0 0 0 44.875 -7 a 23 23 0 0 0 -16 -21.875 z"
       opacity="0.2"
       id="path29" />
  </g>
  <g
     id="g31"
     style="fill:url(#linearGradient3807);fill-opacity:1"
     transform="matrix(0,-1,1,0,0,48)">
    <path
       d="M 24,1 C 36.703,1 47,11.297 47,24 47,36.703 36.703,47 24,47 11.297,47 1,36.703 1,24 1,11.297 11.297,1 24,1 z"
       id="path33"
       style="fill:url(#linearGradient3809);fill-opacity:1"
       inkscape:connector-curvature="0" />
  </g>
  <g
     id="g39">
    <path
       d="m 40.03 7.531 c 3.712 4.084 5.969 9.514 5.969 15.469 0 12.703 -10.297 23 -23 23 c -5.954 0 -11.384 -2.256 -15.469 -5.969 4.178 4.291 10.01 6.969 16.469 6.969 c 12.703 0 23 -10.298 23 -23 0 -6.462 -2.677 -12.291 -6.969 -16.469 z"
       opacity="0.1"
       id="path41" />
  </g>
  <path
     id="path3854"
     d="m 25,12 c -6.627417,0 -12,1.343146 -12,3 0,0.103553 0.02153,0.211649 0.0625,0.3125 l 2.59375,14.21875 C 18.017785,31.059414 21.337169,32 25.03125,32 c 3.67018,0 6.953625,-0.957864 9.3125,-2.46875 L 36.9375,15.3125 C 36.978468,15.211649 37,15.103553 37,15 37,13.343146 31.627417,12 25,12 z m 0,2 c 4.418278,0 8,0.671573 8,1.5 0,0.828427 -3.581722,1.5 -8,1.5 -4.418278,0 -8,-0.671573 -8,-1.5 0,-0.828427 3.581722,-1.5 8,-1.5 z m 0,7 c 2.209139,0 4,1.790861 4,4 0,2.209139 -1.790861,4 -4,4 -2.209139,0 -4,-1.790861 -4,-4 0,-2.209139 1.790861,-4 4,-4 z m 0,2 c -1.104569,0 -2,0.895431 -2,2 0,1.104569 0.895431,2 2,2 1.104569,0 2,-0.895431 2,-2 0,-1.104569 -0.895431,-2 -2,-2 z M 16.0625,31.75 17,37 c 2,2 4,3 8,3 4,0 6,-1 8,-3 l 0.9375,-5.1875 C 31.613195,33.171667 28.487793,34 25.03125,34 21.538251,34 18.393875,33.134667 16.0625,31.75 z"
     style="fill:#000000;fill-opacity:1;fill-rule:nonzero;stroke:none;opacity:0.1"
     inkscape:connector-curvature="0" />
  <path
     style="opacity:1;fill:#eff3f6;fill-opacity:1;fill-rule:nonzero;stroke:none;stroke-opacity:1"
     d="M 24 11 C 17.372583 11 12 12.343146 12 14 C 12 14.103553 12.021532 14.211649 12.0625 14.3125 L 14.65625 28.53125 C 17.017785 30.059414 20.337169 31 24.03125 31 C 27.70143 31 30.984875 30.042136 33.34375 28.53125 L 35.9375 14.3125 C 35.978468 14.211649 36 14.103553 36 14 C 36 12.343146 30.627417 11 24 11 z M 24 13 C 28.418278 13 32 13.671573 32 14.5 C 32 15.328427 28.418278 16 24 16 C 19.581722 16 16 15.328427 16 14.5 C 16 13.671573 19.581722 13 24 13 z M 24 20 C 26.209139 20 28 21.790861 28 24 C 28 26.209139 26.209139 28 24 28 C 21.790861 28 20 26.209139 20 24 C 20 21.790861 21.790861 20 24 20 z M 24 22 C 22.895431 22 22 22.895431 22 24 C 22 25.104569 22.895431 26 24 26 C 25.104569 26 26 25.104569 26 24 C 26 22.895431 25.104569 22 24 22 z M 15.0625 30.75 L 16 36 C 18 38 20 39 24 39 C 28 39 30 38 32 36 L 32.9375 30.8125 C 30.613195 32.171667 27.487793 33 24.03125 33 C 20.538251 33 17.393875 32.134667 15.0625 30.75 z "
     id="path3824" />
</svg>

<svg xmlns="http://www.w3.org/2000/svg" viewBox="0 0 48 48"><defs><clipPath><g transform="translate(0,-1004.3622)"><path d="m -24 13 c 0 1.105 -0.672 2 -1.5 2 -0.828 0 -1.5 -0.895 -1.5 -2 0 -1.105 0.672 -2 1.5 -2 0.828 0 1.5 0.895 1.5 2 z" transform="matrix(15.333333,0,0,11.5,414.99999,878.8622)" fill="#1890d0"/></g></clipPath><clipPath><g transform="translate(0,-1004.3622)"><path d="m -24 13 c 0 1.105 -0.672 2 -1.5 2 -0.828 0 -1.5 -0.895 -1.5 -2 0 -1.105 0.672 -2 1.5 -2 0.828 0 1.5 0.895 1.5 2 z" transform="matrix(15.333333,0,0,11.5,414.99999,878.8622)" fill="#1890d0"/></g></clipPath><linearGradient id="linearGradient3807" x1="1" x2="47" gradientUnits="userSpaceOnUse"><stop stop-color="#205081" stop-opacity="1"/><stop offset="1" stop-color="#245990" stop-opacity="1"/></linearGradient><clipPath clipPathUnits="userSpaceOnUse"><rect width="77.08" height="88.88" x="-57.15" y="-32.542" opacity="0.487" fill="#a5285c" fill-rule="nonzero" stroke="none" fill-opacity="1"/></clipPath></defs><g><path d="m 36.31 5 c 5.859 4.062 9.688 10.831 9.688 18.5 c 0 12.426 -10.07 22.5 -22.5 22.5 c -7.669 0 -14.438 -3.828 -18.5 -9.688 c 1.037 1.822 2.306 3.499 3.781 4.969 c 4.085 3.712 9.514 5.969 15.469 5.969 c 12.703 0 23 -10.298 23 -23 c 0 -5.954 -2.256 -11.384 -5.969 -15.469 c -1.469 -1.475 -3.147 -2.744 -4.969 -3.781 z m 4.969 3.781 c 3.854 4.113 6.219 9.637 6.219 15.719 c 0 12.703 -10.297 23 -23 23 c -6.081 0 -11.606 -2.364 -15.719 -6.219 c 4.16 4.144 9.883 6.719 16.219 6.719 c 12.703 0 23 -10.298 23 -23 c 0 -6.335 -2.575 -12.06 -6.719 -16.219 z" opacity="0.05"/><path d="m 41.28 8.781 c 3.712 4.085 5.969 9.514 5.969 15.469 c 0 12.703 -10.297 23 -23 23 c -5.954 0 -11.384 -2.256 -15.469 -5.969 c 4.113 3.854 9.637 6.219 15.719 6.219 c 12.703 0 23 -10.298 23 -23 c 0 -6.081 -2.364 -11.606 -6.219 -15.719 z" opacity="0.1"/><path d="m 31.25 2.375 c 8.615 3.154 14.75 11.417 14.75 21.13 c 0 12.426 -10.07 22.5 -22.5 22.5 c -9.708 0 -17.971 -6.135 -21.12 -14.75 a 23 23 0 0 0 44.875 -7 a 23 23 0 0 0 -16 -21.875 z" opacity="0.2"/></g><g transform="matrix(0,-1,1,0,0,48)" fill="url(#linearGradient3807)" fill-opacity="1"><path d="M 24,1 C 36.703,1 47,11.297 47,24 47,36.703 36.703,47 24,47 11.297,47 1,36.703 1,24 1,11.297 11.297,1 24,1 z"/></g><g><path d="m 40.03 7.531 c 3.712 4.084 5.969 9.514 5.969 15.469 0 12.703 -10.297 23 -23 23 c -5.954 0 -11.384 -2.256 -15.469 -5.969 4.178 4.291 10.01 6.969 16.469 6.969 c 12.703 0 23 -10.298 23 -23 0 -6.462 -2.677 -12.291 -6.969 -16.469 z" opacity="0.1"/></g><path d="m 25 12 c -6.627 0 -12 1.343 -12 3 0 0.104 0.022 0.212 0.063 0.313 l 2.594 14.219 c 2.362 1.528 5.681 2.469 9.375 2.469 c 3.67 0 6.954 -0.958 9.313 -2.469 l 2.594 -14.219 c 0.041 -0.101 0.063 -0.209 0.063 -0.313 0 -1.657 -5.373 -3 -12 -3 z m 0 2 c 4.418 0 8 0.672 8 1.5 0 0.828 -3.582 1.5 -8 1.5 -4.418 0 -8 -0.672 -8 -1.5 0 -0.828 3.582 -1.5 8 -1.5 z m 0 7 c 2.209 0 4 1.791 4 4 0 2.209 -1.791 4 -4 4 -2.209 0 -4 -1.791 -4 -4 0 -2.209 1.791 -4 4 -4 z m 0 2 c -1.105 0 -2 0.895 -2 2 0 1.105 0.895 2 2 2 1.105 0 2 -0.895 2 -2 0 -1.105 -0.895 -2 -2 -2 z m -8.938 8.75 0.938 5.25 c 2 2 4 3 8 3 4 0 6 -1 8 -3 l 0.938 -5.188 c -2.324 1.359 -5.45 2.188 -8.906 2.188 -3.493 0 -6.637 -0.865 -8.969 -2.25 z" opacity="0.1" fill="#000" fill-rule="nonzero" stroke="none" fill-opacity="1"/><path d="m 24 11 c -6.627 0 -12 1.343 -12 3 c 0 0.104 0.022 0.212 0.063 0.313 l 2.594 14.219 c 2.362 1.528 5.681 2.469 9.375 2.469 c 3.67 0 6.954 -0.958 9.313 -2.469 l 2.594 -14.219 c 0.041 -0.101 0.063 -0.209 0.063 -0.313 c 0 -1.657 -5.373 -3 -12 -3 z m 0 2 c 4.418 0 8 0.672 8 1.5 c 0 0.828 -3.582 1.5 -8 1.5 c -4.418 0 -8 -0.672 -8 -1.5 c 0 -0.828 3.582 -1.5 8 -1.5 z m 0 7 c 2.209 0 4 1.791 4 4 c 0 2.209 -1.791 4 -4 4 c -2.209 0 -4 -1.791 -4 -4 c 0 -2.209 1.791 -4 4 -4 z m 0 2 c -1.105 0 -2 0.895 -2 2 c 0 1.105 0.895 2 2 2 c 1.105 0 2 -0.895 2 -2 c 0 -1.105 -0.895 -2 -2 -2 z m -8.938 8.75 l 0.938 5.25 c 2 2 4 3 8 3 c 4 0 6 -1 8 -3 l 0.938 -5.188 c -2.324 1.359 -5.45 2.188 -8.906 2.188 c -3.493 0 -6.637 -0.865 -8.969 -2.25 z" opacity="1" fill="#eff3f6" fill-rule="nonzero" stroke="none" fill-opacity="1"/></svg>
